build/img/hero-text-2.svg

<svg width="502" height="148" viewBox="0 0 502 148" fill="none" xmlns="http://www.w3.org/2000/svg">
<path d="M59.3328 68.2001L8.73284 115V144H120.933V107.4H73.7444L93.7328 89.2001C100.533 83.0667 105.666 77.5334 109.133 72.6001C112.6 67.5334 114.866 62.7334 115.933 58.2001C117.133 53.6667 117.733 49.1334 117.733 44.6001C117.733 35.6667 115.333 27.9334 110.533 21.4C105.733 14.8667 99.0662 9.80004 90.5328 6.20005C81.9995 2.60005 72.1995 0.800049 61.1328 0.800049C46.0662 0.800049 33.4662 3.80005 23.3328 9.80005C13.1995 15.8 5.5995 23.6 0.532837 33.2001L36.1328 51C38.2662 46.7334 41.1995 43.5334 44.9328 41.4C48.6662 39.1334 52.5995 38 56.7328 38C61.2662 38 64.6662 39 66.9328 41C69.1995 42.8667 70.3328 45.5334 70.3328 49C70.3328 50.6 70.0662 52.3334 69.5328 54.2001C68.9995 55.9334 67.9328 57.9334 66.3328 60.2001C64.8662 62.4667 62.5328 65.1334 59.3328 68.2001Z" fill="url(#paint0_linear_27_1808)"/>
<path fill-rule="evenodd" clip-rule="evenodd" d="M161.013 138.6C170.613 144.333 181.613 147.2 194.013 147.2C206.413 147.2 217.346 144.333 226.813 138.6C236.413 132.867 243.879 124.533 249.213 113.6C254.679 102.667 257.413 89.4667 257.413 74C257.413 58.5334 254.679 45.3334 249.213 34.4C243.879 23.4667 236.413 15.1334 226.813 9.40005C217.346 3.66672 206.413 0.800049 194.013 0.800049C181.613 0.800049 170.613 3.66672 161.013 9.40005C151.546 15.1334 144.079 23.4667 138.613 34.4C133.279 45.3334 130.613 58.5334 130.613 74C130.613 89.4667 133.279 102.667 138.613 113.6C144.079 124.533 151.546 132.867 161.013 138.6ZM202.213 106.2C199.813 108.333 197.079 109.4 194.013 109.4C190.946 109.4 188.213 108.333 185.813 106.2C183.413 104.067 181.479 100.4 180.013 95.2001C178.679 90 178.013 82.9334 178.013 74C178.013 64.9334 178.679 57.8667 180.013 52.8C181.479 47.6 183.413 43.9334 185.813 41.8C188.213 39.6667 190.946 38.6001 194.013 38.6001C197.079 38.6001 199.813 39.6667 202.213 41.8C204.613 43.9334 206.479 47.6 207.813 52.8C209.279 57.8667 210.013 64.9334 210.013 74C210.013 82.9334 209.279 90 207.813 95.2001C206.479 100.4 204.613 104.067 202.213 106.2Z" fill="url(#paint1_linear_27_1808)"/>
<path d="M351.936 89.2001L331.948 107.4H379.136V144H266.936V115L317.536 68.2001C320.736 65.1334 323.069 62.4667 324.536 60.2001C326.136 57.9334 327.203 55.9334 327.736 54.2001C328.269 52.3334 328.536 50.6 328.536 49C328.536 45.5334 327.403 42.8667 325.136 41C322.869 39 319.469 38 314.936 38C310.803 38 306.869 39.1334 303.136 41.4C299.403 43.5334 296.469 46.7334 294.336 51L258.736 33.2001C263.803 23.6 271.403 15.8 281.536 9.80005C291.669 3.80005 304.269 0.800049 319.336 0.800049C330.403 0.800049 340.203 2.60005 348.736 6.20005C357.269 9.80004 363.936 14.8667 368.736 21.4C373.536 27.9334 375.936 35.6667 375.936 44.6001C375.936 49.1334 375.336 53.6667 374.136 58.2001C373.069 62.7334 370.803 67.5334 367.336 72.6001C363.869 77.5334 358.736 83.0667 351.936 89.2001Z" fill="url(#paint2_linear_27_1808)"/>
<path d="M407.816 144C417.682 146.133 427.416 147.2 437.016 147.2C451.949 147.2 464.082 144.867 473.416 140.2C482.882 135.533 489.816 129.533 494.216 122.2C498.749 114.867 501.016 107.2 501.016 99.2001C501.016 86.8 496.416 76.6667 487.216 68.8C482.02 64.3571 475.484 61.1687 467.608 59.2351L493.416 33.0001V4.00005H389.016V39.6001H439.073L418.416 60.6001V89.6H437.016C443.016 89.6 447.282 90.4667 449.816 92.2001C452.349 93.8 453.616 96.1334 453.616 99.2001C453.616 102.8 451.882 105.533 448.416 107.4C445.082 109.133 440.749 110 435.416 110C429.549 110 423.282 109.2 416.616 107.6C410.082 105.867 403.816 103.267 397.816 99.8001L381.816 134.6C389.282 138.733 397.949 141.867 407.816 144Z" fill="url(#paint3_linear_27_1808)"/>
<defs>
<linearGradient id="paint0_linear_27_1808" x1="250.774" y1="0.800049" x2="250.774" y2="147.2" gradientUnits="userSpaceOnUse">
<stop stop-color="#008787"/>
<stop offset="0.583333" stop-color="#025858"/>
<stop offset="1" stop-color="#005788" stop-opacity="0.48"/>
</linearGradient>
<linearGradient id="paint1_linear_27_1808" x1="250.774" y1="0.800049" x2="250.774" y2="147.2" gradientUnits="userSpaceOnUse">
<stop stop-color="#008787"/>
<stop offset="0.583333" stop-color="#025858"/>
<stop offset="1" stop-color="#005788" stop-opacity="0.48"/>
</linearGradient>
<linearGradient id="paint2_linear_27_1808" x1="250.774" y1="0.800049" x2="250.774" y2="147.2" gradientUnits="userSpaceOnUse">
<stop stop-color="#008787"/>
<stop offset="0.583333" stop-color="#025858"/>
<stop offset="1" stop-color="#005788" stop-opacity="0.48"/>
</linearGradient>
<linearGradient id="paint3_linear_27_1808" x1="250.774" y1="0.800049" x2="250.774" y2="147.2" gradientUnits="userSpaceOnUse">
<stop stop-color="#008787"/>
<stop offset="0.583333" stop-color="#025858"/>
<stop offset="1" stop-color="#005788" stop-opacity="0.48"/>
</linearGradient>
</defs>
</svg>

<svg width="502" height="148" fill="none" xmlns="http://www.w3.org/2000/svg"><path d="M59.333 68.2L8.733 115v29h112.2v-36.6H73.744l19.989-18.2c6.8-6.133 11.933-11.667 15.4-16.6 3.467-5.067 5.733-9.867 6.8-14.4 1.2-4.533 1.8-9.067 1.8-13.6 0-8.933-2.4-16.667-7.2-23.2-4.8-6.533-11.467-11.6-20-15.2C81.999 2.6 72.199.8 61.133.8c-15.067 0-27.667 3-37.8 9C13.2 15.8 5.6 23.6.533 33.2l35.6 17.8c2.133-4.267 5.066-7.467 8.8-9.6 3.733-2.267 7.666-3.4 11.8-3.4 4.533 0 7.933 1 10.2 3 2.266 1.867 3.4 4.533 3.4 8 0 1.6-.267 3.333-.8 5.2-.534 1.733-1.6 3.733-3.2 6-1.467 2.267-3.8 4.933-7 8z" fill="url(#paint0_linear_27_1808)"/><path fill-rule="evenodd" clip-rule="evenodd" d="M161.013 138.6c9.6 5.733 20.6 8.6 33 8.6 12.4 0 23.333-2.867 32.8-8.6 9.6-5.733 17.066-14.067 22.4-25 5.466-10.933 8.2-24.133 8.2-39.6 0-15.467-2.734-28.667-8.2-39.6-5.334-10.933-12.8-19.267-22.4-25-9.467-5.733-20.4-8.6-32.8-8.6-12.4 0-23.4 2.867-33 8.6-9.467 5.733-16.934 14.067-22.4 25-5.334 10.933-8 24.133-8 39.6 0 15.467 2.666 28.667 8 39.6 5.466 10.933 12.933 19.267 22.4 25zm41.2-32.4c-2.4 2.133-5.134 3.2-8.2 3.2-3.067 0-5.8-1.067-8.2-3.2-2.4-2.133-4.334-5.8-5.8-11-1.334-5.2-2-12.267-2-21.2 0-9.067.666-16.133 2-21.2 1.466-5.2 3.4-8.867 5.8-11 2.4-2.133 5.133-3.2 8.2-3.2 3.066 0 5.8 1.067 8.2 3.2 2.4 2.133 4.266 5.8 5.6 11 1.466 5.067 2.2 12.133 2.2 21.2 0 8.933-.734 16-2.2 21.2-1.334 5.2-3.2 8.867-5.6 11z" fill="url(#paint1_linear_27_1808)"/><path d="M351.936 89.2l-19.988 18.2h47.188V144h-112.2v-29l50.6-46.8c3.2-3.067 5.533-5.733 7-8 1.6-2.267 2.667-4.267 3.2-6 .533-1.867.8-3.6.8-5.2 0-3.467-1.133-6.133-3.4-8-2.267-2-5.667-3-10.2-3-4.133 0-8.067 1.133-11.8 3.4-3.733 2.133-6.667 5.333-8.8 9.6l-35.6-17.8c5.067-9.6 12.667-17.4 22.8-23.4 10.133-6 22.733-9 37.8-9 11.067 0 20.867 1.8 29.4 5.4 8.533 3.6 15.2 8.667 20 15.2 4.8 6.533 7.2 14.267 7.2 23.2 0 4.533-.6 9.067-1.8 13.6-1.067 4.533-3.333 9.333-6.8 14.4-3.467 4.933-8.6 10.467-15.4 16.6z" fill="url(#paint2_linear_27_1808)"/><path d="M407.816 144c9.866 2.133 19.6 3.2 29.2 3.2 14.933 0 27.066-2.333 36.4-7 9.466-4.667 16.4-10.667 20.8-18 4.533-7.333 6.8-15 6.8-23 0-12.4-4.6-22.533-13.8-30.4-5.196-4.443-11.732-7.631-19.608-9.565L493.416 33V4h-104.4v35.6h50.057l-20.657 21v29h18.6c6 0 10.266.867 12.8 2.6 2.533 1.6 3.8 3.933 3.8 7 0 3.6-1.734 6.333-5.2 8.2-3.334 1.733-7.667 2.6-13 2.6-5.867 0-12.134-.8-18.8-2.4-6.534-1.733-12.8-4.333-18.8-7.8l-16 34.8c7.466 4.133 16.133 7.267 26 9.4z" fill="url(#paint3_linear_27_1808)"/><defs><linearGradient id="paint0_linear_27_1808" x1="250.774" y1=".8" x2="250.774" y2="147.2" gradientUnits="userSpaceOnUse"><stop stop-color="#008787"/><stop offset=".583" stop-color="#025858"/><stop offset="1" stop-color="#005788" stop-opacity=".48"/></linearGradient><linearGradient id="paint1_linear_27_1808" x1="250.774" y1=".8" x2="250.774" y2="147.2" gradientUnits="userSpaceOnUse"><stop stop-color="#008787"/><stop offset=".583" stop-color="#025858"/><stop offset="1" stop-color="#005788" stop-opacity=".48"/></linearGradient><linearGradient id="paint2_linear_27_1808" x1="250.774" y1=".8" x2="250.774" y2="147.2" gradientUnits="userSpaceOnUse"><stop stop-color="#008787"/><stop offset=".583" stop-color="#025858"/><stop offset="1" stop-color="#005788" stop-opacity=".48"/></linearGradient><linearGradient id="paint3_linear_27_1808" x1="250.774" y1=".8" x2="250.774" y2="147.2" gradientUnits="userSpaceOnUse"><stop stop-color="#008787"/><stop offset=".583" stop-color="#025858"/><stop offset="1" stop-color="#005788" stop-opacity=".48"/></linearGradient></defs></svg>
